WorldWind/resources/milstd2525/tacgrp/g-gagpwg------x.svg

<?xml version="1.0" encoding="UTF-8" standalone="no"?>
<!-- SVG content generated using Symbology Configuration Management System (SCMS) -->

<!-- Systematic Software Engineering Ltd. - www.systematic.co.uk - do not remove  -->

<svg
    xmlns:dc="http://purl.org/dc/elements/1.1/"
    xmlns:cc="http://creativecommons.org/ns#"
    xmlns:rdf="http://www.w3.org/1999/02/22-rdf-syntax-ns#"
    xmlns:svg="http://www.w3.org/2000/svg"
    xmlns="http://www.w3.org/2000/svg"
    xmlns:sodipodi="http://sodipodi.sourceforge.net/DTD/sodipodi-0.dtd"
    xmlns:inkscape="http://www.inkscape.org/namespaces/inkscape"
    id="G*GPGPWG--****X"
    width="310"
    height="289.18094"
    viewBox="0 0 310 289.18094"
    preserveAspectRatio="xMidYMid meet"
    zoomAndPan="magnify"
    version="1.1"
    contentScriptType="application/ecmascript"
    contentStyleType="text/css"
    inkscape:version="0.48.2 r9819"
    sodipodi:docname="g-gagpwg------x.svg">
    <metadata
        id="metadata14">
        <rdf:RDF>
            <cc:Work
                rdf:about="">
                <dc:format>image/svg+xml</dc:format>
                <dc:type
                    rdf:resource="http://purl.org/dc/dcmitype/StillImage"/>
            </cc:Work>
        </rdf:RDF>
    </metadata>
    <defs
        id="defs12"/>
    <sodipodi:namedview
        pagecolor="#ffffff"
        bordercolor="#666666"
        borderopacity="1"
        objecttolerance="10"
        gridtolerance="10"
        guidetolerance="10"
        inkscape:pageopacity="0"
        inkscape:pageshadow="2"
        inkscape:window-width="640"
        inkscape:window-height="480"
        id="namedview10"
        showgrid="false"
        inkscape:zoom="0.59"
        inkscape:cx="155"
        inkscape:cy="105.18095"
        inkscape:window-x="0"
        inkscape:window-y="0"
        inkscape:window-maximized="0"
        inkscape:current-layer="G*GPGPWG--****X"/>
    <g
        id="g3"
        transform="translate(-45,-16)">
        <svg
            viewBox="0 0 400 400"
            id="_0.G-G-GPWG------X"
            width="400"
            height="400"
            preserveAspectRatio="xMidYMid meet"
            zoomAndPan="magnify"
            version="1.1"
            contentScriptType="application/ecmascript"
            contentStyleType="text/css"
            inkscape:version="0.48.2 r9819">
            <path
                d="m 125,300 c 0,0 -65.3074,2.842 -50,-14 15.3074,-16.842 100,-19 100,-19 l 25,-142 25,142 c 0,0 84.857,2.74 100,19 15.143,16.26 -50,14 -50,14 z"
                style="fill:none;stroke:#ffffff;stroke-width:10;stroke-dasharray:15"
                id="path6"
                inkscape:connector-curvature="0"/>
            <path
                d="m 200,21 c 82.842,0 150,62.579 150,104 0,29.938 -43.902,61.631 -80,63 -35.15,1.333 -34.055,-62.18 -70,-62.5 -35.945,-0.32 -33.143,63.331 -69,62.5 C 94.3078,187.15 50,155.758 50,125 50,83.579 117.158,21 200,21 z"
                style="fill:none;stroke:#ffffff;stroke-width:10;stroke-dasharray:15"
                id="path8"
                inkscape:connector-curvature="0"/>
        </svg>
    </g>
</svg>

<?xml version="1.0"?>
<!-- SVG content generated using Symbology Configuration Management System (SCMS) -->
<!-- Systematic Software Engineering Ltd. - www.systematic.co.uk - do not remove  -->
<svg xmlns="http://www.w3.org/2000/svg" xmlns:xlink="http://www.w3.org/1999/xlink" id="G*GPGPWG--****X" width="400px"
     height="400px" viewBox="0 0 400 400" preserveAspectRatio="xMidYMid meet" zoomAndPan="magnify" version="1.1"
     contentScriptType="application/ecmascript" contentStyleType="text/css">
    <g>
        <svg viewBox="0 0 400 400" id="_0.G-G-GPWG------X" width="400px" height="400px"
             preserveAspectRatio="xMidYMid meet" zoomAndPan="magnify" version="1.1"
             contentScriptType="application/ecmascript" contentStyleType="text/css">
            <path
                d="M125 300 C125 300 59.6926 302.842 75 286 C90.3074 269.158 175 267 175 267 L200 125    L225 267 C225 267 309.857 269.74 325 286 C340.143 302.26 275 300 275 300 z"
                style="fill:none;stroke:rgb(255,255,255);stroke-width:10;stroke-dasharray:15"/>
            <path transform="matrix(1 0 0 1 0 0)"
                  d="M200 21 C282.842 21 350 83.579 350 125 C350 154.938 306.098 186.631 270 188 C234.85    189.333 235.945 125.82 200 125.5 C164.055 125.18 166.857 188.831 131 188 C94.3078    187.15 50 155.758 50 125 C50 83.579 117.158 21 200 21 z"
                  style="fill:none;stroke:rgb(255,255,255);stroke-width:10;stroke-dasharray:15"/>
        </svg>

    </g>
</svg>
